X: 11
M: C
L: 1/8
K: D
|:\
{f}e4 d2 z2 :||: (de) (fe) (de) (fe) | (df) (ed)
(c>de) A | e3 d (dc) (cB) | (BA) (AB/c/) d2 zd |
(df) (ed) d3 d | (d {e}f) (ed) d>eHf D | F2 A2
g2 f2 | {f}e4 {de}d2 :|

